X: 31141
T: Paddy Fahey's
R: reel
M: 4/4
K: Fmajor
|:GA|B2 dB DFBd|c=BcA FAcA|B2 dB DFBd|c=BcA _BGGA|
BDGA BDGB|ADFA c2 =Bc|dg ~g2 dc=Bd|c=BcF DG:|
K:G
|:Bd|g2 dg Bdge|=f2 cf Acfa|gfgd ABcA|df (3fga g3 a|
_bgaf gfdc|(3Bcd BG D2 =FA|dg ~g2 dcBd|cBc=F DG:|

